**kern	**kern
*part1	*part1
*staff2	*staff1
*I"Piano	*
*clefF4	*clefF4
*k[b-e-]	*k[b-e-]
=1	=1
4EE-)	(4G 4e-
8BB-	8F) 8d
=	=
*	*^
4BBB-	(8B-L 8d	4.F
.	8c 8e-	.
8FF	8dJ) 8f	.
*	*v	*v
=	=
4BBB-	(8FL 8d
.	8E- 8c
8FF	8DJ) 8B-
=	=
4BBB-	(8CL 8A
.	8D 8B-
8FF	8E-J) 8c
=	=
4BBB-	(8FL 8d
.	8G 8e-
8BB-	8A-XJ) 8f
=	=
4EE-	(4B- 4g
8E-	8G) 8e-
=	=
*	*^
!	!LO:TX:b:i:t=legato	!
4FF	(8B-L	4F 4c
.	8A	.
!	!LO:TX:b:i:t=cresc.	!
8FF	8A-XJ)	8F 8d
=	=	=
4CC	(8dL	4E- 4G 4e-
.	8c	.
8CC	8B-J)	8G 8e-
*	*v	*v
=	=
*-	*-
!!!system-decoration: {(s1,s2)}
